svgs/sharp-regular/sleigh.svg

<svg xmlns="http://www.w3.org/2000/svg" viewBox="0 0 640 512"><!--! Font Awesome Pro 6.6.0 by @fontawesome - https://fontawesome.com License - https://fontawesome.com/license (Commercial License) Copyright 2024 Fonticons, Inc. --><path d="M24 32L0 32 0 80l24 0 8 0 0 176c0 62.5 44.8 114.5 104 125.8l0 50.2-80 0-24 0 0 48 24 0 560 0 24 0 0-24 0-72 0-24-48 0 0 24 0 48-152 0 0-48.2C507 379.6 560 324 560 256l0-112 24 0 24 0 0-48-24 0-24 0-24 0-24 0-48 0-48 0 0 48 0 32 0 48-6.6 0c-14 0-27.8-1.3-41.4-3.7c-64.2-11.6-121.3-49.7-156.6-106C182.5 67.9 133.7 38.1 80 32.8c-2.7-.3-5.3-.5-8-.6l0-.2-9 0L48 32 32 32l-8 0zM392 432l-208 0 0-48 208 0 0 48zm40-96l-40 0-208 0-24 0c-44.2 0-80-35.8-80-80L80 81.1c37.2 5 70.5 26.3 90.7 58.6C222.2 222 312.3 272 409.4 272l6.6 0 48 0 0-48 0-80 48 0 0 112c0 44.2-35.8 80-80 80z"/></svg>

<svg xmlns="http://www.w3.org/2000/svg" viewBox="0 0 640 512"><!--! Font Awesome Pro 6.4.2 by @fontawesome - https://fontawesome.com License - https://fontawesome.com/license (Commercial License) Copyright 2023 Fonticons, Inc. --><path d="M24 32H0V80H24h8V256c0 62.5 44.8 114.5 104 125.8V432H56 32v48H56 616h24V456 384 360H592v24 48H440V383.8C507 379.6 560 324 560 256V144h24 24V96H584 560 536 512 464 416v48 32 48h-6.6c-14 0-27.8-1.3-41.4-3.7c-64.2-11.6-121.3-49.7-156.6-106C182.5 67.9 133.7 38.1 80 32.8c-2.7-.3-5.3-.5-8-.6V32H63 48 32 24zM392 432H184V384H392v48zm40-96H392 184 160c-44.2 0-80-35.8-80-80V81.1c37.2 5 70.5 26.3 90.7 58.6C222.2 222 312.3 272 409.4 272H416h48V224 144h48V256c0 44.2-35.8 80-80 80z"/></svg>
